src/assets/icons/24h.svg

<?xml version="1.0" encoding="UTF-8"?>
<svg width="32px" height="32px" viewBox="0 0 32 32" version="1.1" xmlns="http://www.w3.org/2000/svg" xmlns:xlink="http://www.w3.org/1999/xlink">
    <!-- Generator: Sketch 61.2 (89653) - https://sketch.com -->
    <title>Atoms/Ikoner/Tjenester/24h</title>
    <desc>Created with Sketch.</desc>
    <g id="Atoms/Ikoner/Tjenester/24h" stroke="none" stroke-width="1" fill="none" fill-rule="evenodd">
        <g id="Dognapne-vakttjenester">
            <path d="M15.34,0 L22,3.845 L22,6.155 L15.34,10 L15.34,6.033 C9.031,6.379 4,11.606 4,18 C4,24.617 9.383,30 16,30 C22.617,30 28,24.617 28,18 C28,14.817 26.767,11.818 24.526,9.556 L24.526,9.556 L25.948,8.149 C28.561,10.788 30,14.286 30,18 C30,25.72 23.72,32 16,32 C8.28,32 2,25.72 2,18 C2,10.503 7.927,4.382 15.34,4.033 L15.34,4.033 L15.34,0 Z M12.044,13.184 C13.947,13.184 15.276,14.365 15.276,16.056 C15.276,17.377 14.468,18.29 13.764,18.936 L13.764,18.936 L11.773,20.838 L15.288,20.838 L15.288,22.805 L8.837,22.805 L8.837,21.012 L12.32,17.594 C13.003,16.929 13.277,16.201 13.051,15.646 C12.894,15.258 12.509,15.027 12.02,15.027 C11.067,15.027 10.865,15.979 10.826,16.271 L10.826,16.271 L10.785,16.574 L8.745,16.259 L8.777,15.973 C8.957,14.357 10.331,13.184 12.044,13.184 Z M22.34,13.408 L22.34,19.099 L23.569,19.099 L23.569,20.978 L22.34,20.978 L22.34,22.805 L20.274,22.805 L20.274,20.978 L16.212,20.978 L16.212,19.272 L20.091,13.408 L22.34,13.408 Z M20.274,16.455 L18.597,19.099 L20.274,19.099 L20.274,16.455 Z" id="Combined-Shape" fill="#2A2859"></path>
        </g>
    </g>
</svg>

<svg xmlns="http://www.w3.org/2000/svg" width="32" height="32" viewBox="0 0 32 32"><defs><style>.cls-1{fill-rule:evenodd;}</style></defs><g id="_24h" data-name="24h"><path id="Combined-Shape" class="cls-1" d="M15.34,0,22,3.85V6.16L15.34,10V6a12,12,0,1,0,9.19,3.53h0L26,8.15A14,14,0,1,1,15.34,4h0ZM12,13.18a2.94,2.94,0,0,1,3.24,2.88,3.92,3.92,0,0,1-1.52,2.88h0l-2,1.9h3.52v2H8.84V21l3.48-3.42a1.88,1.88,0,0,0,.73-1.94A1,1,0,0,0,12,15c-.95,0-1.16,1-1.19,1.24h0l-.05.3-2-.31,0-.29A3.18,3.18,0,0,1,12,13.18Zm10.3.23V19.1h1.23V21H22.34v1.83H20.27V21H16.21V19.27l3.88-5.86Zm-2.07,3L18.6,19.1h1.67Z"/></g></svg>
